; Scaffold G-code generated by DarwinScaffoldStudio
; Material: PLDLA
; Printer: Standard FDM (Prusa/Ender style)
; Build size: 10.0 x 10.0 x 5.0 mm
; Pore size: 2951 um, Wall: 250 um
; Layers: 50, Layer height: 0.10 mm

; === STARTUP ===
G28 ; Home all axes
G90 ; Absolute positioning
M82 ; Extruder absolute mode
M104 S185 ; Set nozzle temp
M140 S55 ; Set bed temp
M109 S185 ; Wait for nozzle temp
M190 S55 ; Wait for bed temp
G1 Z5 F300 ; Lift nozzle

; === PRINTING ===

; Layer 0, Z=0.10
G1 Z0.100 F300
G0 X0.000 Y0.125 F4200
G1 X10.000 Y0.125 E0.0131 F2100
G0 X0.000 Y3.326 F4200
G1 X10.000 Y3.326 E0.0261 F2100
G0 X0.000 Y6.526 F4200
G1 X10.000 Y6.526 E0.0392 F2100
G0 X0.000 Y9.727 F4200
G1 X10.000 Y9.727 E0.0522 F2100

; Layer 1, Z=0.20
G1 Z0.200 F300
G0 X0.125 Y0.000 F4200
G1 X0.125 Y10.000 E0.0653 F2100
G0 X3.326 Y0.000 F4200
G1 X3.326 Y10.000 E0.0784 F2100
G0 X6.526 Y0.000 F4200
G1 X6.526 Y10.000 E0.0914 F2100
G0 X9.727 Y0.000 F4200
G1 X9.727 Y10.000 E0.1045 F2100

; Layer 2, Z=0.30
G1 Z0.300 F300
G0 X0.000 Y0.125 F4200
G1 X10.000 Y0.125 E0.1176 F2100
G0 X0.000 Y3.326 F4200
G1 X10.000 Y3.326 E0.1306 F2100
G0 X0.000 Y6.526 F4200
G1 X10.000 Y6.526 E0.1437 F2100
G0 X0.000 Y9.727 F4200
G1 X10.000 Y9.727 E0.1567 F2100

; Layer 3, Z=0.40
G1 Z0.400 F300
G0 X0.125 Y0.000 F4200
G1 X0.125 Y10.000 E0.1698 F2100
G0 X3.326 Y0.000 F4200
G1 X3.326 Y10.000 E0.1829 F2100
G0 X6.526 Y0.000 F4200
G1 X6.526 Y10.000 E0.1959 F2100
G0 X9.727 Y0.000 F4200
G1 X9.727 Y10.000 E0.2090 F2100

; Layer 4, Z=0.50
G1 Z0.500 F300
G0 X0.000 Y0.125 F4200
G1 X10.000 Y0.125 E0.2220 F2100
G0 X0.000 Y3.326 F4200
G1 X10.000 Y3.326 E0.2351 F2100
G0 X0.000 Y6.526 F4200
G1 X10.000 Y6.526 E0.2482 F2100
G0 X0.000 Y9.727 F4200
G1 X10.000 Y9.727 E0.2612 F2100

; Layer 5, Z=0.60
G1 Z0.600 F300
G0 X0.125 Y0.000 F4200
G1 X0.125 Y10.000 E0.2743 F2100
G0 X3.326 Y0.000 F4200
G1 X3.326 Y10.000 E0.2873 F2100
G0 X6.526 Y0.000 F4200
G1 X6.526 Y10.000 E0.3004 F2100
G0 X9.727 Y0.000 F4200
G1 X9.727 Y10.000 E0.3135 F2100

; Layer 6, Z=0.70
G1 Z0.700 F300
G0 X0.000 Y0.125 F4200
G1 X10.000 Y0.125 E0.3265 F2100
G0 X0.000 Y3.326 F4200
G1 X10.000 Y3.326 E0.3396 F2100
G0 X0.000 Y6.526 F4200
G1 X10.000 Y6.526 E0.3527 F2100
G0 X0.000 Y9.727 F4200
G1 X10.000 Y9.727 E0.3657 F2100

; Layer 7, Z=0.80
G1 Z0.800 F300
G0 X0.125 Y0.000 F4200
G1 X0.125 Y10.000 E0.3788 F2100
G0 X3.326 Y0.000 F4200
G1 X3.326 Y10.000 E0.3918 F2100
G0 X6.526 Y0.000 F4200
G1 X6.526 Y10.000 E0.4049 F2100
G0 X9.727 Y0.000 F4200
G1 X9.727 Y10.000 E0.4180 F2100

; Layer 8, Z=0.90
G1 Z0.900 F300
G0 X0.000 Y0.125 F4200
G1 X10.000 Y0.125 E0.4310 F2100
G0 X0.000 Y3.326 F4200
G1 X10.000 Y3.326 E0.4441 F2100
G0 X0.000 Y6.526 F4200
G1 X10.000 Y6.526 E0.4571 F2100
G0 X0.000 Y9.727 F4200
G1 X10.000 Y9.727 E0.4702 F2100

; Layer 9, Z=1.00
G1 Z1.000 F300
G0 X0.125 Y0.000 F4200
G1 X0.125 Y10.000 E0.4833 F2100
G0 X3.326 Y0.000 F4200
G1 X3.326 Y10.000 E0.4963 F2100
G0 X6.526 Y0.000 F4200
G1 X6.526 Y10.000 E0.5094 F2100
G0 X9.727 Y0.000 F4200
G1 X9.727 Y10.000 E0.5224 F2100

; Layer 10, Z=1.10
G1 Z1.100 F300
G0 X0.000 Y0.125 F4200
G1 X10.000 Y0.125 E0.5355 F2100
G0 X0.000 Y3.326 F4200
G1 X10.000 Y3.326 E0.5486 F2100
G0 X0.000 Y6.526 F4200
G1 X10.000 Y6.526 E0.5616 F2100
G0 X0.000 Y9.727 F4200
G1 X10.000 Y9.727 E0.5747 F2100

; Layer 11, Z=1.20
G1 Z1.200 F300
G0 X0.125 Y0.000 F4200
G1 X0.125 Y10.000 E0.5878 F2100
G0 X3.326 Y0.000 F4200
G1 X3.326 Y10.000 E0.6008 F2100
G0 X6.526 Y0.000 F4200
G1 X6.526 Y10.000 E0.6139 F2100
G0 X9.727 Y0.000 F4200
G1 X9.727 Y10.000 E0.6269 F2100

; Layer 12, Z=1.30
G1 Z1.300 F300
G0 X0.000 Y0.125 F4200
G1 X10.000 Y0.125 E0.6400 F2100
G0 X0.000 Y3.326 F4200
G1 X10.000 Y3.326 E0.6531 F2100
G0 X0.000 Y6.526 F4200
G1 X10.000 Y6.526 E0.6661 F2100
G0 X0.000 Y9.727 F4200
G1 X10.000 Y9.727 E0.6792 F2100

; Layer 13, Z=1.40
G1 Z1.400 F300
G0 X0.125 Y0.000 F4200
G1 X0.125 Y10.000 E0.6922 F2100
G0 X3.326 Y0.000 F4200
G1 X3.326 Y10.000 E0.7053 F2100
G0 X6.526 Y0.000 F4200
G1 X6.526 Y10.000 E0.7184 F2100
G0 X9.727 Y0.000 F4200
G1 X9.727 Y10.000 E0.7314 F2100

; Layer 14, Z=1.50
G1 Z1.500 F300
G0 X0.000 Y0.125 F4200
G1 X10.000 Y0.125 E0.7445 F2100
G0 X0.000 Y3.326 F4200
G1 X10.000 Y3.326 E0.7576 F2100
G0 X0.000 Y6.526 F4200
G1 X10.000 Y6.526 E0.7706 F2100
G0 X0.000 Y9.727 F4200
G1 X10.000 Y9.727 E0.7837 F2100

; Layer 15, Z=1.60
G1 Z1.600 F300
G0 X0.125 Y0.000 F4200
G1 X0.125 Y10.000 E0.7967 F2100
G0 X3.326 Y0.000 F4200
G1 X3.326 Y10.000 E0.8098 F2100
G0 X6.526 Y0.000 F4200
G1 X6.526 Y10.000 E0.8229 F2100
G0 X9.727 Y0.000 F4200
G1 X9.727 Y10.000 E0.8359 F2100

; Layer 16, Z=1.70
G1 Z1.700 F300
G0 X0.000 Y0.125 F4200
G1 X10.000 Y0.125 E0.8490 F2100
G0 X0.000 Y3.326 F4200
G1 X10.000 Y3.326 E0.8620 F2100
G0 X0.000 Y6.526 F4200
G1 X10.000 Y6.526 E0.8751 F2100
G0 X0.000 Y9.727 F4200
G1 X10.000 Y9.727 E0.8882 F2100

; Layer 17, Z=1.80
G1 Z1.800 F300
G0 X0.125 Y0.000 F4200
G1 X0.125 Y10.000 E0.9012 F2100
G0 X3.326 Y0.000 F4200
G1 X3.326 Y10.000 E0.9143 F2100
G0 X6.526 Y0.000 F4200
G1 X6.526 Y10.000 E0.9273 F2100
G0 X9.727 Y0.000 F4200
G1 X9.727 Y10.000 E0.9404 F2100

; Layer 18, Z=1.90
G1 Z1.900 F300
G0 X0.000 Y0.125 F4200
G1 X10.000 Y0.125 E0.9535 F2100
G0 X0.000 Y3.326 F4200
G1 X10.000 Y3.326 E0.9665 F2100
G0 X0.000 Y6.526 F4200
G1 X10.000 Y6.526 E0.9796 F2100
G0 X0.000 Y9.727 F4200
G1 X10.000 Y9.727 E0.9927 F2100

; Layer 19, Z=2.00
G1 Z2.000 F300
G0 X0.125 Y0.000 F4200
G1 X0.125 Y10.000 E1.0057 F2100
G0 X3.326 Y0.000 F4200
G1 X3.326 Y10.000 E1.0188 F2100
G0 X6.526 Y0.000 F4200
G1 X6.526 Y10.000 E1.0318 F2100
G0 X9.727 Y0.000 F4200
G1 X9.727 Y10.000 E1.0449 F2100

; Layer 20, Z=2.10
G1 Z2.100 F300
G0 X0.000 Y0.125 F4200
G1 X10.000 Y0.125 E1.0580 F2100
G0 X0.000 Y3.326 F4200
G1 X10.000 Y3.326 E1.0710 F2100
G0 X0.000 Y6.526 F4200
G1 X10.000 Y6.526 E1.0841 F2100
G0 X0.000 Y9.727 F4200
G1 X10.000 Y9.727 E1.0971 F2100

; Layer 21, Z=2.20
G1 Z2.200 F300
G0 X0.125 Y0.000 F4200
G1 X0.125 Y10.000 E1.1102 F2100
G0 X3.326 Y0.000 F4200
G1 X3.326 Y10.000 E1.1233 F2100
G0 X6.526 Y0.000 F4200
G1 X6.526 Y10.000 E1.1363 F2100
G0 X9.727 Y0.000 F4200
G1 X9.727 Y10.000 E1.1494 F2100

; Layer 22, Z=2.30
G1 Z2.300 F300
G0 X0.000 Y0.125 F4200
G1 X10.000 Y0.125 E1.1624 F2100
G0 X0.000 Y3.326 F4200
G1 X10.000 Y3.326 E1.1755 F2100
G0 X0.000 Y6.526 F4200
G1 X10.000 Y6.526 E1.1886 F2100
G0 X0.000 Y9.727 F4200
G1 X10.000 Y9.727 E1.2016 F2100

; Layer 23, Z=2.40
G1 Z2.400 F300
G0 X0.125 Y0.000 F4200
G1 X0.125 Y10.000 E1.2147 F2100
G0 X3.326 Y0.000 F4200
G1 X3.326 Y10.000 E1.2278 F2100
G0 X6.526 Y0.000 F4200
G1 X6.526 Y10.000 E1.2408 F2100
G0 X9.727 Y0.000 F4200
G1 X9.727 Y10.000 E1.2539 F2100

; Layer 24, Z=2.50
G1 Z2.500 F300
G0 X0.000 Y0.125 F4200
G1 X10.000 Y0.125 E1.2669 F2100
G0 X0.000 Y3.326 F4200
G1 X10.000 Y3.326 E1.2800 F2100
G0 X0.000 Y6.526 F4200
G1 X10.000 Y6.526 E1.2931 F2100
G0 X0.000 Y9.727 F4200
G1 X10.000 Y9.727 E1.3061 F2100

; Layer 25, Z=2.60
G1 Z2.600 F300
G0 X0.125 Y0.000 F4200
G1 X0.125 Y10.000 E1.3192 F2100
G0 X3.326 Y0.000 F4200
G1 X3.326 Y10.000 E1.3322 F2100
G0 X6.526 Y0.000 F4200
G1 X6.526 Y10.000 E1.3453 F2100
G0 X9.727 Y0.000 F4200
G1 X9.727 Y10.000 E1.3584 F2100

; Layer 26, Z=2.70
G1 Z2.700 F300
G0 X0.000 Y0.125 F4200
G1 X10.000 Y0.125 E1.3714 F2100
G0 X0.000 Y3.326 F4200
G1 X10.000 Y3.326 E1.3845 F2100
G0 X0.000 Y6.526 F4200
G1 X10.000 Y6.526 E1.3976 F2100
G0 X0.000 Y9.727 F4200
G1 X10.000 Y9.727 E1.4106 F2100

; Layer 27, Z=2.80
G1 Z2.800 F300
G0 X0.125 Y0.000 F4200
G1 X0.125 Y10.000 E1.4237 F2100
G0 X3.326 Y0.000 F4200
G1 X3.326 Y10.000 E1.4367 F2100
G0 X6.526 Y0.000 F4200
G1 X6.526 Y10.000 E1.4498 F2100
G0 X9.727 Y0.000 F4200
G1 X9.727 Y10.000 E1.4629 F2100

; Layer 28, Z=2.90
G1 Z2.900 F300
G0 X0.000 Y0.125 F4200
G1 X10.000 Y0.125 E1.4759 F2100
G0 X0.000 Y3.326 F4200
G1 X10.000 Y3.326 E1.4890 F2100
G0 X0.000 Y6.526 F4200
G1 X10.000 Y6.526 E1.5020 F2100
G0 X0.000 Y9.727 F4200
G1 X10.000 Y9.727 E1.5151 F2100

; Layer 29, Z=3.00
G1 Z3.000 F300
G0 X0.125 Y0.000 F4200
G1 X0.125 Y10.000 E1.5282 F2100
G0 X3.326 Y0.000 F4200
G1 X3.326 Y10.000 E1.5412 F2100
G0 X6.526 Y0.000 F4200
G1 X6.526 Y10.000 E1.5543 F2100
G0 X9.727 Y0.000 F4200
G1 X9.727 Y10.000 E1.5673 F2100

; Layer 30, Z=3.10
G1 Z3.100 F300
G0 X0.000 Y0.125 F4200
G1 X10.000 Y0.125 E1.5804 F2100
G0 X0.000 Y3.326 F4200
G1 X10.000 Y3.326 E1.5935 F2100
G0 X0.000 Y6.526 F4200
G1 X10.000 Y6.526 E1.6065 F2100
G0 X0.000 Y9.727 F4200
G1 X10.000 Y9.727 E1.6196 F2100

; Layer 31, Z=3.20
G1 Z3.200 F300
G0 X0.125 Y0.000 F4200
G1 X0.125 Y10.000 E1.6327 F2100
G0 X3.326 Y0.000 F4200
G1 X3.326 Y10.000 E1.6457 F2100
G0 X6.526 Y0.000 F4200
G1 X6.526 Y10.000 E1.6588 F2100
G0 X9.727 Y0.000 F4200
G1 X9.727 Y10.000 E1.6718 F2100

; Layer 32, Z=3.30
G1 Z3.300 F300
G0 X0.000 Y0.125 F4200
G1 X10.000 Y0.125 E1.6849 F2100
G0 X0.000 Y3.326 F4200
G1 X10.000 Y3.326 E1.6980 F2100
G0 X0.000 Y6.526 F4200
G1 X10.000 Y6.526 E1.7110 F2100
G0 X0.000 Y9.727 F4200
G1 X10.000 Y9.727 E1.7241 F2100

; Layer 33, Z=3.40
G1 Z3.400 F300
G0 X0.125 Y0.000 F4200
G1 X0.125 Y10.000 E1.7371 F2100
G0 X3.326 Y0.000 F4200
G1 X3.326 Y10.000 E1.7502 F2100
G0 X6.526 Y0.000 F4200
G1 X6.526 Y10.000 E1.7633 F2100
G0 X9.727 Y0.000 F4200
G1 X9.727 Y10.000 E1.7763 F2100

; Layer 34, Z=3.50
G1 Z3.500 F300
G0 X0.000 Y0.125 F4200
G1 X10.000 Y0.125 E1.7894 F2100
G0 X0.000 Y3.326 F4200
G1 X10.000 Y3.326 E1.8024 F2100
G0 X0.000 Y6.526 F4200
G1 X10.000 Y6.526 E1.8155 F2100
G0 X0.000 Y9.727 F4200
G1 X10.000 Y9.727 E1.8286 F2100

; Layer 35, Z=3.60
G1 Z3.600 F300
G0 X0.125 Y0.000 F4200
G1 X0.125 Y10.000 E1.8416 F2100
G0 X3.326 Y0.000 F4200
G1 X3.326 Y10.000 E1.8547 F2100
G0 X6.526 Y0.000 F4200
G1 X6.526 Y10.000 E1.8678 F2100
G0 X9.727 Y0.000 F4200
G1 X9.727 Y10.000 E1.8808 F2100

; Layer 36, Z=3.70
G1 Z3.700 F300
G0 X0.000 Y0.125 F4200
G1 X10.000 Y0.125 E1.8939 F2100
G0 X0.000 Y3.326 F4200
G1 X10.000 Y3.326 E1.9069 F2100
G0 X0.000 Y6.526 F4200
G1 X10.000 Y6.526 E1.9200 F2100
G0 X0.000 Y9.727 F4200
G1 X10.000 Y9.727 E1.9331 F2100

; Layer 37, Z=3.80
G1 Z3.800 F300
G0 X0.125 Y0.000 F4200
G1 X0.125 Y10.000 E1.9461 F2100
G0 X3.326 Y0.000 F4200
G1 X3.326 Y10.000 E1.9592 F2100
G0 X6.526 Y0.000 F4200
G1 X6.526 Y10.000 E1.9722 F2100
G0 X9.727 Y0.000 F4200
G1 X9.727 Y10.000 E1.9853 F2100

; Layer 38, Z=3.90
G1 Z3.900 F300
G0 X0.000 Y0.125 F4200
G1 X10.000 Y0.125 E1.9984 F2100
G0 X0.000 Y3.326 F4200
G1 X10.000 Y3.326 E2.0114 F2100
G0 X0.000 Y6.526 F4200
G1 X10.000 Y6.526 E2.0245 F2100
G0 X0.000 Y9.727 F4200
G1 X10.000 Y9.727 E2.0376 F2100

; Layer 39, Z=4.00
G1 Z4.000 F300
G0 X0.125 Y0.000 F4200
G1 X0.125 Y10.000 E2.0506 F2100
G0 X3.326 Y0.000 F4200
G1 X3.326 Y10.000 E2.0637 F2100
G0 X6.526 Y0.000 F4200
G1 X6.526 Y10.000 E2.0767 F2100
G0 X9.727 Y0.000 F4200
G1 X9.727 Y10.000 E2.0898 F2100

; Layer 40, Z=4.10
G1 Z4.100 F300
G0 X0.000 Y0.125 F4200
G1 X10.000 Y0.125 E2.1029 F2100
G0 X0.000 Y3.326 F4200
G1 X10.000 Y3.326 E2.1159 F2100
G0 X0.000 Y6.526 F4200
G1 X10.000 Y6.526 E2.1290 F2100
G0 X0.000 Y9.727 F4200
G1 X10.000 Y9.727 E2.1420 F2100

; Layer 41, Z=4.20
G1 Z4.200 F300
G0 X0.125 Y0.000 F4200
G1 X0.125 Y10.000 E2.1551 F2100
G0 X3.326 Y0.000 F4200
G1 X3.326 Y10.000 E2.1682 F2100
G0 X6.526 Y0.000 F4200
G1 X6.526 Y10.000 E2.1812 F2100
G0 X9.727 Y0.000 F4200
G1 X9.727 Y10.000 E2.1943 F2100

; Layer 42, Z=4.30
G1 Z4.300 F300
G0 X0.000 Y0.125 F4200
G1 X10.000 Y0.125 E2.2073 F2100
G0 X0.000 Y3.326 F4200
G1 X10.000 Y3.326 E2.2204 F2100
G0 X0.000 Y6.526 F4200
G1 X10.000 Y6.526 E2.2335 F2100
G0 X0.000 Y9.727 F4200
G1 X10.000 Y9.727 E2.2465 F2100

; Layer 43, Z=4.40
G1 Z4.400 F300
G0 X0.125 Y0.000 F4200
G1 X0.125 Y10.000 E2.2596 F2100
G0 X3.326 Y0.000 F4200
G1 X3.326 Y10.000 E2.2727 F2100
G0 X6.526 Y0.000 F4200
G1 X6.526 Y10.000 E2.2857 F2100
G0 X9.727 Y0.000 F4200
G1 X9.727 Y10.000 E2.2988 F2100

; Layer 44, Z=4.50
G1 Z4.500 F300
G0 X0.000 Y0.125 F4200
G1 X10.000 Y0.125 E2.3118 F2100
G0 X0.000 Y3.326 F4200
G1 X10.000 Y3.326 E2.3249 F2100
G0 X0.000 Y6.526 F4200
G1 X10.000 Y6.526 E2.3380 F2100
G0 X0.000 Y9.727 F4200
G1 X10.000 Y9.727 E2.3510 F2100

; Layer 45, Z=4.60
G1 Z4.600 F300
G0 X0.125 Y0.000 F4200
G1 X0.125 Y10.000 E2.3641 F2100
G0 X3.326 Y0.000 F4200
G1 X3.326 Y10.000 E2.3771 F2100
G0 X6.526 Y0.000 F4200
G1 X6.526 Y10.000 E2.3902 F2100
G0 X9.727 Y0.000 F4200
G1 X9.727 Y10.000 E2.4033 F2100

; Layer 46, Z=4.70
G1 Z4.700 F300
G0 X0.000 Y0.125 F4200
G1 X10.000 Y0.125 E2.4163 F2100
G0 X0.000 Y3.326 F4200
G1 X10.000 Y3.326 E2.4294 F2100
G0 X0.000 Y6.526 F4200
G1 X10.000 Y6.526 E2.4424 F2100
G0 X0.000 Y9.727 F4200
G1 X10.000 Y9.727 E2.4555 F2100

; Layer 47, Z=4.80
G1 Z4.800 F300
G0 X0.125 Y0.000 F4200
G1 X0.125 Y10.000 E2.4686 F2100
G0 X3.326 Y0.000 F4200
G1 X3.326 Y10.000 E2.4816 F2100
G0 X6.526 Y0.000 F4200
G1 X6.526 Y10.000 E2.4947 F2100
G0 X9.727 Y0.000 F4200
G1 X9.727 Y10.000 E2.5078 F2100

; Layer 48, Z=4.90
G1 Z4.900 F300
G0 X0.000 Y0.125 F4200
G1 X10.000 Y0.125 E2.5208 F2100
G0 X0.000 Y3.326 F4200
G1 X10.000 Y3.326 E2.5339 F2100
G0 X0.000 Y6.526 F4200
G1 X10.000 Y6.526 E2.5469 F2100
G0 X0.000 Y9.727 F4200
G1 X10.000 Y9.727 E2.5600 F2100

; Layer 49, Z=5.00
G1 Z5.000 F300
G0 X0.125 Y0.000 F4200
G1 X0.125 Y10.000 E2.5731 F2100
G0 X3.326 Y0.000 F4200
G1 X3.326 Y10.000 E2.5861 F2100
G0 X6.526 Y0.000 F4200
G1 X6.526 Y10.000 E2.5992 F2100
G0 X9.727 Y0.000 F4200
G1 X9.727 Y10.000 E2.6122 F2100

; === FINISH ===
G1 Z15.0 F300 ; Lift nozzle
G28 X Y ; Home X Y
M104 S0 ; Nozzle heater off
M140 S0 ; Bed heater off
M84 ; Disable motors