; Scaffold G-code generated by DarwinScaffoldStudio
; Material: COL1
; Printer: Pneumatic Bioprinter (CELLINK/Allevi style)
; Build size: 15.0 x 15.0 x 3.0 mm
; Pore size: 3238 um, Wall: 250 um
; Layers: 29, Layer height: 0.10 mm

; === STARTUP ===
G28 ; Home all axes
G90 ; Absolute positioning
M82 ; Extruder absolute mode
; Set nozzle temp: 8 C
; Set bed temp: 37 C
; Set pressure: 25 kPa
G1 Z5 F300 ; Lift nozzle

; === PRINTING ===

; Layer 0, Z=0.10
G1 Z0.105 F300
G0 X0.000 Y0.125 F600
G1 X15.000 Y0.125 F300
G0 X0.000 Y3.613 F600
G1 X15.000 Y3.613 F300
G0 X0.000 Y7.100 F600
G1 X15.000 Y7.100 F300
G0 X0.000 Y10.588 F600
G1 X15.000 Y10.588 F300
G0 X0.000 Y14.075 F600
G1 X15.000 Y14.075 F300

; Layer 1, Z=0.21
G1 Z0.210 F300
G0 X0.125 Y0.000 F600
G1 X0.125 Y15.000 F300
G0 X3.613 Y0.000 F600
G1 X3.613 Y15.000 F300
G0 X7.100 Y0.000 F600
G1 X7.100 Y15.000 F300
G0 X10.588 Y0.000 F600
G1 X10.588 Y15.000 F300
G0 X14.075 Y0.000 F600
G1 X14.075 Y15.000 F300

; Layer 2, Z=0.32
G1 Z0.315 F300
G0 X0.000 Y0.125 F600
G1 X15.000 Y0.125 F300
G0 X0.000 Y3.613 F600
G1 X15.000 Y3.613 F300
G0 X0.000 Y7.100 F600
G1 X15.000 Y7.100 F300
G0 X0.000 Y10.588 F600
G1 X15.000 Y10.588 F300
G0 X0.000 Y14.075 F600
G1 X15.000 Y14.075 F300

; Layer 3, Z=0.42
G1 Z0.420 F300
G0 X0.125 Y0.000 F600
G1 X0.125 Y15.000 F300
G0 X3.613 Y0.000 F600
G1 X3.613 Y15.000 F300
G0 X7.100 Y0.000 F600
G1 X7.100 Y15.000 F300
G0 X10.588 Y0.000 F600
G1 X10.588 Y15.000 F300
G0 X14.075 Y0.000 F600
G1 X14.075 Y15.000 F300

; Layer 4, Z=0.53
G1 Z0.525 F300
G0 X0.000 Y0.125 F600
G1 X15.000 Y0.125 F300
G0 X0.000 Y3.613 F600
G1 X15.000 Y3.613 F300
G0 X0.000 Y7.100 F600
G1 X15.000 Y7.100 F300
G0 X0.000 Y10.588 F600
G1 X15.000 Y10.588 F300
G0 X0.000 Y14.075 F600
G1 X15.000 Y14.075 F300

; Layer 5, Z=0.63
G1 Z0.630 F300
G0 X0.125 Y0.000 F600
G1 X0.125 Y15.000 F300
G0 X3.613 Y0.000 F600
G1 X3.613 Y15.000 F300
G0 X7.100 Y0.000 F600
G1 X7.100 Y15.000 F300
G0 X10.588 Y0.000 F600
G1 X10.588 Y15.000 F300
G0 X14.075 Y0.000 F600
G1 X14.075 Y15.000 F300

; Layer 6, Z=0.73
G1 Z0.735 F300
G0 X0.000 Y0.125 F600
G1 X15.000 Y0.125 F300
G0 X0.000 Y3.613 F600
G1 X15.000 Y3.613 F300
G0 X0.000 Y7.100 F600
G1 X15.000 Y7.100 F300
G0 X0.000 Y10.588 F600
G1 X15.000 Y10.588 F300
G0 X0.000 Y14.075 F600
G1 X15.000 Y14.075 F300

; Layer 7, Z=0.84
G1 Z0.840 F300
G0 X0.125 Y0.000 F600
G1 X0.125 Y15.000 F300
G0 X3.613 Y0.000 F600
G1 X3.613 Y15.000 F300
G0 X7.100 Y0.000 F600
G1 X7.100 Y15.000 F300
G0 X10.588 Y0.000 F600
G1 X10.588 Y15.000 F300
G0 X14.075 Y0.000 F600
G1 X14.075 Y15.000 F300

; Layer 8, Z=0.94
G1 Z0.945 F300
G0 X0.000 Y0.125 F600
G1 X15.000 Y0.125 F300
G0 X0.000 Y3.613 F600
G1 X15.000 Y3.613 F300
G0 X0.000 Y7.100 F600
G1 X15.000 Y7.100 F300
G0 X0.000 Y10.588 F600
G1 X15.000 Y10.588 F300
G0 X0.000 Y14.075 F600
G1 X15.000 Y14.075 F300

; Layer 9, Z=1.05
G1 Z1.050 F300
G0 X0.125 Y0.000 F600
G1 X0.125 Y15.000 F300
G0 X3.613 Y0.000 F600
G1 X3.613 Y15.000 F300
G0 X7.100 Y0.000 F600
G1 X7.100 Y15.000 F300
G0 X10.588 Y0.000 F600
G1 X10.588 Y15.000 F300
G0 X14.075 Y0.000 F600
G1 X14.075 Y15.000 F300

; Layer 10, Z=1.16
G1 Z1.155 F300
G0 X0.000 Y0.125 F600
G1 X15.000 Y0.125 F300
G0 X0.000 Y3.613 F600
G1 X15.000 Y3.613 F300
G0 X0.000 Y7.100 F600
G1 X15.000 Y7.100 F300
G0 X0.000 Y10.588 F600
G1 X15.000 Y10.588 F300
G0 X0.000 Y14.075 F600
G1 X15.000 Y14.075 F300

; Layer 11, Z=1.26
G1 Z1.260 F300
G0 X0.125 Y0.000 F600
G1 X0.125 Y15.000 F300
G0 X3.613 Y0.000 F600
G1 X3.613 Y15.000 F300
G0 X7.100 Y0.000 F600
G1 X7.100 Y15.000 F300
G0 X10.588 Y0.000 F600
G1 X10.588 Y15.000 F300
G0 X14.075 Y0.000 F600
G1 X14.075 Y15.000 F300

; Layer 12, Z=1.36
G1 Z1.365 F300
G0 X0.000 Y0.125 F600
G1 X15.000 Y0.125 F300
G0 X0.000 Y3.613 F600
G1 X15.000 Y3.613 F300
G0 X0.000 Y7.100 F600
G1 X15.000 Y7.100 F300
G0 X0.000 Y10.588 F600
G1 X15.000 Y10.588 F300
G0 X0.000 Y14.075 F600
G1 X15.000 Y14.075 F300

; Layer 13, Z=1.47
G1 Z1.470 F300
G0 X0.125 Y0.000 F600
G1 X0.125 Y15.000 F300
G0 X3.613 Y0.000 F600
G1 X3.613 Y15.000 F300
G0 X7.100 Y0.000 F600
G1 X7.100 Y15.000 F300
G0 X10.588 Y0.000 F600
G1 X10.588 Y15.000 F300
G0 X14.075 Y0.000 F600
G1 X14.075 Y15.000 F300

; Layer 14, Z=1.57
G1 Z1.575 F300
G0 X0.000 Y0.125 F600
G1 X15.000 Y0.125 F300
G0 X0.000 Y3.613 F600
G1 X15.000 Y3.613 F300
G0 X0.000 Y7.100 F600
G1 X15.000 Y7.100 F300
G0 X0.000 Y10.588 F600
G1 X15.000 Y10.588 F300
G0 X0.000 Y14.075 F600
G1 X15.000 Y14.075 F300

; Layer 15, Z=1.68
G1 Z1.680 F300
G0 X0.125 Y0.000 F600
G1 X0.125 Y15.000 F300
G0 X3.613 Y0.000 F600
G1 X3.613 Y15.000 F300
G0 X7.100 Y0.000 F600
G1 X7.100 Y15.000 F300
G0 X10.588 Y0.000 F600
G1 X10.588 Y15.000 F300
G0 X14.075 Y0.000 F600
G1 X14.075 Y15.000 F300

; Layer 16, Z=1.78
G1 Z1.785 F300
G0 X0.000 Y0.125 F600
G1 X15.000 Y0.125 F300
G0 X0.000 Y3.613 F600
G1 X15.000 Y3.613 F300
G0 X0.000 Y7.100 F600
G1 X15.000 Y7.100 F300
G0 X0.000 Y10.588 F600
G1 X15.000 Y10.588 F300
G0 X0.000 Y14.075 F600
G1 X15.000 Y14.075 F300

; Layer 17, Z=1.89
G1 Z1.890 F300
G0 X0.125 Y0.000 F600
G1 X0.125 Y15.000 F300
G0 X3.613 Y0.000 F600
G1 X3.613 Y15.000 F300
G0 X7.100 Y0.000 F600
G1 X7.100 Y15.000 F300
G0 X10.588 Y0.000 F600
G1 X10.588 Y15.000 F300
G0 X14.075 Y0.000 F600
G1 X14.075 Y15.000 F300

; Layer 18, Z=1.99
G1 Z1.995 F300
G0 X0.000 Y0.125 F600
G1 X15.000 Y0.125 F300
G0 X0.000 Y3.613 F600
G1 X15.000 Y3.613 F300
G0 X0.000 Y7.100 F600
G1 X15.000 Y7.100 F300
G0 X0.000 Y10.588 F600
G1 X15.000 Y10.588 F300
G0 X0.000 Y14.075 F600
G1 X15.000 Y14.075 F300

; Layer 19, Z=2.10
G1 Z2.100 F300
G0 X0.125 Y0.000 F600
G1 X0.125 Y15.000 F300
G0 X3.613 Y0.000 F600
G1 X3.613 Y15.000 F300
G0 X7.100 Y0.000 F600
G1 X7.100 Y15.000 F300
G0 X10.588 Y0.000 F600
G1 X10.588 Y15.000 F300
G0 X14.075 Y0.000 F600
G1 X14.075 Y15.000 F300

; Layer 20, Z=2.21
G1 Z2.205 F300
G0 X0.000 Y0.125 F600
G1 X15.000 Y0.125 F300
G0 X0.000 Y3.613 F600
G1 X15.000 Y3.613 F300
G0 X0.000 Y7.100 F600
G1 X15.000 Y7.100 F300
G0 X0.000 Y10.588 F600
G1 X15.000 Y10.588 F300
G0 X0.000 Y14.075 F600
G1 X15.000 Y14.075 F300

; Layer 21, Z=2.31
G1 Z2.310 F300
G0 X0.125 Y0.000 F600
G1 X0.125 Y15.000 F300
G0 X3.613 Y0.000 F600
G1 X3.613 Y15.000 F300
G0 X7.100 Y0.000 F600
G1 X7.100 Y15.000 F300
G0 X10.588 Y0.000 F600
G1 X10.588 Y15.000 F300
G0 X14.075 Y0.000 F600
G1 X14.075 Y15.000 F300

; Layer 22, Z=2.42
G1 Z2.415 F300
G0 X0.000 Y0.125 F600
G1 X15.000 Y0.125 F300
G0 X0.000 Y3.613 F600
G1 X15.000 Y3.613 F300
G0 X0.000 Y7.100 F600
G1 X15.000 Y7.100 F300
G0 X0.000 Y10.588 F600
G1 X15.000 Y10.588 F300
G0 X0.000 Y14.075 F600
G1 X15.000 Y14.075 F300

; Layer 23, Z=2.52
G1 Z2.520 F300
G0 X0.125 Y0.000 F600
G1 X0.125 Y15.000 F300
G0 X3.613 Y0.000 F600
G1 X3.613 Y15.000 F300
G0 X7.100 Y0.000 F600
G1 X7.100 Y15.000 F300
G0 X10.588 Y0.000 F600
G1 X10.588 Y15.000 F300
G0 X14.075 Y0.000 F600
G1 X14.075 Y15.000 F300

; Layer 24, Z=2.62
G1 Z2.625 F300
G0 X0.000 Y0.125 F600
G1 X15.000 Y0.125 F300
G0 X0.000 Y3.613 F600
G1 X15.000 Y3.613 F300
G0 X0.000 Y7.100 F600
G1 X15.000 Y7.100 F300
G0 X0.000 Y10.588 F600
G1 X15.000 Y10.588 F300
G0 X0.000 Y14.075 F600
G1 X15.000 Y14.075 F300

; Layer 25, Z=2.73
G1 Z2.730 F300
G0 X0.125 Y0.000 F600
G1 X0.125 Y15.000 F300
G0 X3.613 Y0.000 F600
G1 X3.613 Y15.000 F300
G0 X7.100 Y0.000 F600
G1 X7.100 Y15.000 F300
G0 X10.588 Y0.000 F600
G1 X10.588 Y15.000 F300
G0 X14.075 Y0.000 F600
G1 X14.075 Y15.000 F300

; Layer 26, Z=2.83
G1 Z2.835 F300
G0 X0.000 Y0.125 F600
G1 X15.000 Y0.125 F300
G0 X0.000 Y3.613 F600
G1 X15.000 Y3.613 F300
G0 X0.000 Y7.100 F600
G1 X15.000 Y7.100 F300
G0 X0.000 Y10.588 F600
G1 X15.000 Y10.588 F300
G0 X0.000 Y14.075 F600
G1 X15.000 Y14.075 F300

; Layer 27, Z=2.94
G1 Z2.940 F300
G0 X0.125 Y0.000 F600
G1 X0.125 Y15.000 F300
G0 X3.613 Y0.000 F600
G1 X3.613 Y15.000 F300
G0 X7.100 Y0.000 F600
G1 X7.100 Y15.000 F300
G0 X10.588 Y0.000 F600
G1 X10.588 Y15.000 F300
G0 X14.075 Y0.000 F600
G1 X14.075 Y15.000 F300

; Layer 28, Z=3.04
G1 Z3.045 F300
G0 X0.000 Y0.125 F600
G1 X15.000 Y0.125 F300
G0 X0.000 Y3.613 F600
G1 X15.000 Y3.613 F300
G0 X0.000 Y7.100 F600
G1 X15.000 Y7.100 F300
G0 X0.000 Y10.588 F600
G1 X15.000 Y10.588 F300
G0 X0.000 Y14.075 F600
G1 X15.000 Y14.075 F300

; === FINISH ===
G1 Z13.0 F300 ; Lift nozzle
G28 X Y ; Home X Y
M84 ; Disable motors

; === POST-PROCESSING ===
; Crosslink with: GEN